X:14234
T:Return To Milltown
R:jig
S:
H:
N:
D:Milltown Session
Z:Adrian Scahill
M:4/4
L:1/8
K:D
Adde fded|(3Bcd ef gece|Adde fded|cAGE FDD2|\
Adde fded|(3Bcd ef gece|f3d e3d|cAGE EDD2:||\
K:C\
D2FD ADFD|C2EC GCEC|F3E FDED|CD (3EFG cAGE|\
D2FD ADFD|C2EC GCEC|F3E FDED|1 CD (3EFG cAGE:|2 CD (3EFG cAGc||
